icons/black/zipme.svg

<?xml version="1.0" encoding="UTF-8"?><svg id="a" xmlns="http://www.w3.org/2000/svg" viewBox="0 0 48 48"><defs><style>.v{fill:none;stroke:#000;stroke-linecap:round;stroke-linejoin:round;}</style></defs><g id="b"><path id="c" class="v" d="M9.5,5.5h29c2.2091,0,4,1.7909,4,4v29c0,2.2091-1.7909,4-4,4H9.5c-2.2091,0-4-1.7909-4-4V9.5c0-2.2091,1.7909-4,4-4Z"/><path id="d" class="v" d="M10.3684,7.4474v1.9474l.9737.9737h1.9474l.9737-.9737v-1.9474"/><path id="e" class="v" d="M12.3158,10.3684l-.9737.9737v1.9474l.9737.9737.9737-.9737v-1.9474l-.9737-.9737Z"/><path id="f" class="v" d="M10.3684,7.4474h3.8947"/><path id="g" class="v" d="M11.3421,7.4474v-1.9474h0"/><path id="h" class="v" d="M13.2895,7.4474v-1.9474"/><path id="i" class="v" d="M11.3421,15.2368v27.2632"/><path id="j" class="v" d="M13.2895,15.2368v27.2632"/><path id="k" class="v" d="M11.3421,39.5789h1.9474"/><path id="l" class="v" d="M11.3421,36.6579h1.9474"/><path id="m" class="v" d="M11.3421,33.7368h1.9474"/><path id="n" class="v" d="M11.3421,30.8158h1.9474"/><path id="o" class="v" d="M11.3421,27.8947h1.9474"/><path id="p" class="v" d="M11.3421,24.9737h1.9474"/><path id="q" class="v" d="M11.3421,22.0526h1.9474"/><path id="r" class="v" d="M11.3421,19.1316h1.9474"/><path id="s" class="v" d="M11.3421,16.2105h1.9474"/><path id="t" class="v" d="M29.8421,11.3421h5.8421"/><path id="u" class="v" d="M32.7632,8.4211v5.8421"/></g><path class="v" d="M28.6048,35.853c-.5241,0-.949-.4249-.949-.949s.4249-.949.949-.949.949.4249.949.949-.4249.949-.949.949h0Z"/><path class="v" d="M34.1432,35.853c-.5241,0-.949-.4249-.949-.949,0-.5241.4249-.949.949-.949s.949.4249.949.949c0,.5241-.4249.949-.949.949h0Z"/><path class="v" d="M31.3662,29.9958h0c3.7461,0,6.7829,3.0368,6.7829,6.7829h0c0,.5327-.4318.9645-.9645.9645h0s-11.6678,0-11.6678,0c-.5327,0-.9645-.4318-.9645-.9645h0c0-3.7461,3.0367-6.7829,6.7828-6.783.0104,0,.0208,0,.0312,0Z"/><line class="v" x1="25.509" y1="28.9845" x2="27.438" y2="31.2481"/><line class="v" x1="37.2235" y1="28.9845" x2="35.2944" y2="31.2481"/></svg>

<svg xmlns="http://www.w3.org/2000/svg" viewBox="0 0 48 48"><defs><style>.a{fill:none;stroke:#000;stroke-linecap:round;stroke-linejoin:round;}</style></defs><path class="a" d="M7.4474,5.5H40.5526A1.9474,1.9474,0,0,1,42.5,7.4474V40.5526A1.9474,1.9474,0,0,1,40.5526,42.5H7.4474A1.9474,1.9474,0,0,1,5.5,40.5526V7.4474A1.9474,1.9474,0,0,1,7.4474,5.5Z"/><path class="a" d="M10.3684,7.4474V9.3947l.9737.9737H13.29l.9737-.9737V7.4474"/><path class="a" d="M12.3158,10.3684l-.9737.9737V13.29l.9737.9737L13.29,13.29V11.3421Z"/><path class="a" d="M10.3684,7.4474h3.8948"/><path class="a" d="M11.3421,7.4474V5.5h0"/><path class="a" d="M13.29,7.4474V5.5"/><path class="a" d="M11.3421,15.2368V42.5"/><path class="a" d="M13.29,15.2368V42.5"/><path class="a" d="M11.3421,39.5789H13.29"/><path class="a" d="M11.3421,36.6579H13.29"/><path class="a" d="M11.3421,33.7368H13.29"/><path class="a" d="M11.3421,30.8158H13.29"/><path class="a" d="M11.3421,27.8947H13.29"/><path class="a" d="M11.3421,24.9737H13.29"/><path class="a" d="M11.3421,22.0526H13.29"/><path class="a" d="M11.3421,19.1316H13.29"/><path class="a" d="M11.3421,16.2105H13.29"/><path class="a" d="M29.8421,11.3421h5.8421"/><path class="a" d="M32.7632,8.4211v5.8421"/><path class="a" d="M28.6048,35.853a.949.949,0,1,1,.949-.949.949.949,0,0,1-.949.949Z"/><path class="a" d="M34.1432,35.853a.949.949,0,1,1,.949-.949.949.949,0,0,1-.949.949Z"/><path class="a" d="M31.3662,29.9958h0a6.7829,6.7829,0,0,1,6.7829,6.7829h0a.9645.9645,0,0,1-.9645.9645H25.5167a.9645.9645,0,0,1-.9645-.9645h0a6.7829,6.7829,0,0,1,6.7828-6.783Z"/><line class="a" x1="25.509" y1="28.9845" x2="27.438" y2="31.2481"/><line class="a" x1="37.2235" y1="28.9845" x2="35.2944" y2="31.2481"/></svg>
